X:1
T:Onward, Ever Onward!
T:Charles Hutchinson Gabriel
T:Onward, Ever Onward!
T:Public Domain
T:Public Domain
T:Public Domain
C:Charles Hutchinson Gabriel
Z:Public Domain
%%score ( 1 2 ) ( 3 4 )
L:1/8
M:4/4
K:Eb
V:1 treble 
V:2 treble 
V:3 bass 
V:4 bass 
V:1
 [GB]2 [GB]2 [GB]>[FA] [EG]>[B,F] | [B,E]>[B,F] [B,E]>[B,F] [B,E]2 [EG]>[EG] | %2
w: 1.~Christ has need of sol- diers,|brave and staunch and true; In the|
w: 2.~Sa- tan would op- pose us,|tempt our souls to stray, But through|
w: 3.~Let us then with cour- age|press our up- ward way, With our|
 [DF]>[^C=E] [DF]>[_EG] [FA]>[A=c] [GB]>[FA] | ([EG]2 G2 G4) | [GB]2 [GB]2 [GB]>[FA] [EG]>[B,F] | %5
w: front of bat- tle there’s a place for|you; * *|er march- ing on- ward through|
w: Him who loves us we shall win the|day; * *|ther val- iant sol- diers in|
w: gaze on Je- sus, ev- er watch and|pray; * *|zoned on our ban- ner, “Christ|
 [B,E]>[B,F] [B,E]>[B,F] [B,E]2 [EG]>[EG] | [EF]>[EG] [E=A]>[DB] [Fc]>[Fe] [Ed]>[Ec] | %7
w: a world of sin, For the heav’n-|ly coun- try is the prize we win.|
w: the ag- es past, O’er this up-|ward path- way reached their home at last.|
w: the Lord of all,” While we shout,|Ho- san- na, Sa- tan’s hosts must fall.|
 (D2 F2 A2 cd) ||"^Refrain" [Ge]4 [Ad]4 | [Ge]>[Gf] [Ae]>[Ac] [GB]2 (3(Bc)[EG] | %10
w: On- * * * *|sol- diers|of the cross, Doubt- ing ne- * ver,|
w: |||
w: |||
 [AB]2 [AB]4 (3(Bc)[DF] | [GB]2 [GB]4 z2 | [Ge]4 [Ad]4 | %13
w: ing ev- er; * On-|sol- diers|of the|
w: |||
w: |||
 [Ge]>[Gf] [Ae]>[Ac] [GB]2 (3[GB][^F=A][GB] | [Ac]2 (3[Fc][F=B][Fc] [Fd]2 (3[Ad][Ac][Ad] | %15
w: cross, Trust- ing the Lord, heed- ing His|Word, On- ward to vic- to- ry! *|
w: ||
w: ||
 [Ge]2 [Ae]2 [Ge]4 |] %16
w: |
w: |
w: |
V:2
 x8 | x8 | x8 | x2 B6 | x8 | x8 | x8 | B6 x2 || x8 | x6 G2 | x6 A2 | x8 | x8 | x8 | x8 | x8 |] %16
w: |||Ev-||||ward!||trust-|ward!||||||
w: |||O-|||||||||||||
w: |||Bla-|||||||||||||
V:3
 E,>F, G,>A, E>B, B,>A, | [E,G,]>[E,A,] [E,G,]>[E,A,] [E,G,]2 [E,B,]>[E,B,] | %2
w: ~ ~ ~ ~ ~ ~ ~ ~|~ ~ ~ ~ ~ ~ ~|
 [B,,B,]>[B,,B,] [B,,B,]>[B,,B,] [B,,B,]2 [B,,B,]2 | ([E,B,]2 [=E,^C]2 F,2 B,,2) | %4
w: ~ ~ ~ ~ ~ ~|~ * * *|
 (E,>F,) (G,>A,) E>B, B,>A, | [E,G,]>[E,A,] [E,G,]>[E,A,] [E,G,]2 [E,B,]>[E,B,] | %6
w: ~ * ~ * ~ ~ ~ ~|~ ~ ~ ~ ~ On- ward,|
 [F,=A,]>[F,B,] [F,C]>[F,B,] [F,A,]2 [F,A,]2 | ([B,,B,]2 [B,,D]2 [B,,D]2) z2 || %8
w: ev- er on- ward! sol- diers|of * *|
 E,>B,, E,>G, B,>A, G,>F, | (B,>=B,) (C>E) [E,E]2 (3:2:2E2 B, | F,>B,, D,>F, B,2 (3:2:2D2 B, | %11
w: the cross, ~ ~ To the cause be|~ * Je- * sus calls for|~ ~ On- ward, ev- er on-|
 E,>B,, E,>G, B,2 A,G,/F,/ | E,>B,, E,>G, B,>G, G,>F, | (B,>=B,) (C>E) [E,E]2 (3[E,E][E,E][E,E] | %14
w: diers of the cross, * * * *|||
 [A,E]2 (3[=A,E][A,D][A,C] B,2 (3[B,,B,][B,,B,][B,,B,] | [E,B,]2 [E,C]2 [E,B,]4 |] %16
w: ||
V:4
 E2 E2 B,2 B,,2 | x8 | x8 | x4 D4 | E2 E2 B,2 B,,2 | x8 | x8 | x8 || B,4 B,4 | E,2 E,2 x4 | %10
w: ~ ~ ~ ~|||~|~ ~ ~ ~||||true, ~|you, ~|
 D2 D4 x2 | E2 E4 x2 | B,4 B,4 | E,2 E,2 x4 | x4 B,2 x2 | x8 |] %16
w: ward! sol-||||||

